X: 8165
T: Coolbawn, The
R: slide
M: 12/8
K: Gmajor
|:E|D2 G BAG D2 G BAG|D2 B BAB c2 A FGA|
D2 G BAG D2 G BAG|1 d2 B cBA G3 G2:|2 d2 B cBA G3 z Bc||
|:d2 d d^cd B2 d e2 d|g2 d e2 d B2 d e2 A|
d3 d^cd B2 d e2 B|1 d2 B cBA G3 z Bc:|2 d2 B cBA G3 G3||

